packages/icons/svg/Outline/navigation.svg

<svg fill="none" height="24" viewBox="0 0 24 24" width="24" xmlns="http://www.w3.org/2000/svg"><path clip-rule="evenodd" d="m12 13.7019c.192 0 .385.056.552.166l4.88 3.231-5.432-10.86303-5.43198 10.86303 4.87998-3.231c.167-.11.36-.166.552-.166zm8 7.298c-.192 0-.384-.055-.552-.166l-7.448-4.933-7.44802 4.933c-.378.249-.876.215-1.215-.085-.339-.301-.434-.791-.232-1.196l8.00002-15.99997c.339-.678 1.451-.678 1.79 0l8 15.99997c.202.405.107.895-.232 1.196-.188.166-.425.251-.663.251z" fill="#6b7280" fill-rule="evenodd"/></svg>

<svg width="24" height="24" viewBox="0 0 24 24" fill="none" xmlns="http://www.w3.org/2000/svg">
<g id="Icon/Outline/navigation">
<path id="Mask" fill-rule="evenodd" clip-rule="evenodd" d="M12 13.7021C12.192 13.7021 12.385 13.7581 12.552 13.8681L17.432 17.0991L12 6.23609L6.56798 17.0991L11.448 13.8681C11.615 13.7581 11.808 13.7021 12 13.7021ZM20 21.0001C19.808 21.0001 19.616 20.9451 19.448 20.8341L12 15.9011L4.55198 20.8341C4.17398 21.0831 3.67598 21.0491 3.33698 20.7491C2.99798 20.4481 2.90298 19.9581 3.10498 19.5531L11.105 3.55309C11.444 2.87509 12.556 2.87509 12.895 3.55309L20.895 19.5531C21.097 19.9581 21.002 20.4481 20.663 20.7491C20.475 20.9151 20.238 21.0001 20 21.0001Z" fill="#000000"/>
</g>
</svg>
